pk/first.svg

<svg viewBox="0 0 48 48" fill="none" xmlns="http://www.w3.org/2000/svg" height="1em" width="1em">
  <path d="M24.6795 20.0369C23.5651 19.7383 20.2653 18.6795 15.1701 22.0923C12.139 24.1225 10.8642 27.2398 10.4343 29.5299C10.2299 30.6186 11.1544 31.4966 12.2543 31.3663C13.0503 31.2719 13.9337 31.1249 14.6021 30.8988C16.5725 30.2323 16.3138 28.9685 17.319 27.4461C18.3242 25.9236 20.8518 25.4064 22.9314 26.5609C25.0111 27.7154 25.6776 29.6857 25.2297 31.3575C24.7818 33.0292 23.7766 34.5516 21.249 35.0688C18.7214 35.5861 17.9055 34.173 15.2687 32.8692C13.8946 32.1897 12.1023 33.0708 11.0197 33.7677C10.4067 34.1622 10.1527 34.9075 10.41 35.5895C10.5847 36.0527 10.8251 36.5946 11.1386 37.1378C11.9545 38.5509 15.5165 43.0888 20.1238 43.7261C24.731 44.3633 29.5276 42.0651 32.2445 38.6123C34.9614 35.1596 35.0414 30.403 33.1511 26.313" stroke="black" stroke-width="4" stroke-linecap="round" stroke-linejoin="round"/>
  <path d="M33.0455 26.4197L28.2769 4.15576C28.1699 3.65645 27.701 3.31051 27.2073 3.44095C26.0457 3.74787 24.5712 4.51818 24.5018 6.31019C24.4124 8.61605 24.8663 26.3489 25.4729 29.567" stroke="black" stroke-width="4" stroke-linecap="round" stroke-linejoin="round"/>
</svg>

<svg viewBox="0 0 48 48" fill="none" xmlns="http://www.w3.org/2000/svg" height="1em" width="1em">
  <path d="M24.68 20.037c-1.115-.299-4.415-1.357-9.51 2.055-3.031 2.03-4.306 5.148-4.736 7.438-.204 1.089.72 1.967 1.82 1.836.796-.094 1.68-.241 2.348-.467 1.97-.667 1.712-1.93 2.717-3.453 1.005-1.522 3.533-2.04 5.612-.885 2.08 1.154 2.747 3.125 2.299 4.797-.448 1.671-1.453 3.194-3.981 3.71-2.528.518-3.343-.895-5.98-2.199-1.374-.68-3.167.202-4.25.899a1.514 1.514 0 0 0-.609 1.822c.175.463.415 1.005.729 1.548.816 1.413 4.378 5.95 8.985 6.588 4.607.637 9.404-1.66 12.12-5.114 2.717-3.452 2.797-8.209.907-12.299" stroke="#000" stroke-width="4" stroke-linecap="round" stroke-linejoin="round"/>
  <path d="M33.045 26.42 28.277 4.156c-.107-.5-.576-.845-1.07-.715-1.161.307-2.636 1.077-2.705 2.87-.09 2.305.364 20.038.97 23.256" stroke="#000" stroke-width="4" stroke-linecap="round" stroke-linejoin="round"/>
</svg>
